X: 1
T: Silent Scene
Z: Oatmeal88
S: https://thesession.org/tunes/14141#setting25663
R: slide
M: 12/8
L: 1/8
K: Gmaj
|:D| GDG B3B AG ABG | D3 GAB BAG ABG |
GDG B3B AG ABd | dcB AGA cGD G3 :|
|:[Bd3] dBd B3 G2E | B3 EFG BAG A3 |
[Bd3] dBd e3 B2 A | GDD FGA G2 :|
